X: 26778
T: Miller Of Droghan, The
R: reel
M: 4/4
K: Gmajor
|:G2BG DGBG|EGef gdBA|G2BG DGBA|GEGA BdBA|
G2BG DGBG|EGef gdBA|faef d2ed|1 BAGA B2BA:|2 BAGA BG (3Bcd||
eEE2 DEBE|DEGA B2BA|GEE2 DEBE|DEGA BG (3Bcd|
eEE2 DEBE|DEGA B2BA|GEE2 DEBE|DEGA B2BA||

